X:883
M:C|
L:1/8
K:A
E|A>B c<A F<A E>C|B,<B B>c d/c/B/A/ G>B|A>B c>A F<A E>C|1
e|d/c/B/A/ e>A f<a e>c|d>B d/c/B/A/ G<B B>e|d/c/B/A/ e>A f<A e>c|
d>B d/c/B/A/ E<A A>c|d/c/B/A/ e<A f<a e>c|d>B d/c/B/A/ G<B B>d|
(3cAc (3ece (3fdf (3agf|(3edc (3cBA E<AA||

